X: 4473
T: Bonnie Mulligan
R: reel
M: 4/4
K: Amajor
"A"a2ed cdeg|aece degb|a2ed cdec|"E"~B3c defg|
"A"a2ed cdeg|aece degb|a2ed cdec|1 "E"~B3 c BAA2:|2 "E"~B3 c BAAc||
|:"D"defd "A"cdec|"E"B2Bc BAAc|"D"defd "A"cdec|1 "E"BEE2 Bcdc:|2 B2 Bc dcBc||
|:"A"Acec "D"defd|"A"cdec "E"B2Bc|"A"Acec "D"defg|1 "A"a2ed cAA2:|2 a2ed cdeg||

